icons/svg/16x16/add squircle/outline.svg

<svg xmlns="http://www.w3.org/2000/svg" width="16" height="16" viewBox="0 0 16 16">
  <path fill-rule="evenodd" d="M11,9 L9,9 L9,11 C9,11.553 8.552,12 8,12 C7.448,12 7,11.553 7,11 L7,9 L5,9 C4.448,9 4,8.553 4,8 C4,7.447 4.448,7 5,7 L7,7 L7,5 C7,4.447 7.448,4 8,4 C8.552,4 9,4.447 9,5 L9,7 L11,7 C11.552,7 12,7.447 12,8 C12,8.553 11.552,9 11,9 M12.6545,11.2494 C12.5025,11.9514 11.9515,12.5034 11.2495,12.6544 C10.1885,12.8834 9.0955,13.0004 8.0005,13.0004 C6.9045,13.0004 5.8115,12.8834 4.7505,12.6544 C4.0485,12.5034 3.4975,11.9514 3.3455,11.2494 C3.1165,10.1894 3.0005,9.0954 3.0005,8.0004 C3.0005,6.9034 3.1165,5.8104 3.3455,4.7504 C3.4975,4.0484 4.0485,3.4974 4.7505,3.3454 C5.8115,3.1164 6.9045,3.0004 8.0005,3.0004 C9.0965,3.0004 10.1895,3.1164 11.2495,3.3454 C11.9515,3.4974 12.5025,4.0484 12.6545,4.7514 C12.8835,5.8114 13.0005,6.9044 13.0005,8.0004 C13.0005,9.0954 12.8835,10.1884 12.6545,11.2494 M14.6095,4.3284 C14.2915,2.8564 13.1435,1.7094 11.6715,1.3904 C10.4885,1.1344 9.2595,1.0004 8.0005,1.0004 C6.7405,1.0004 5.5115,1.1344 4.3285,1.3904 C2.8565,1.7084 1.7085,2.8564 1.3905,4.3284 C1.1345,5.5114 1.0005,6.7404 1.0005,8.0004 C1.0005,9.2594 1.1345,10.4884 1.3905,11.6714 C1.7085,13.1434 2.8555,14.2914 4.3285,14.6094 C5.5115,14.8654 6.7405,15.0004 8.0005,15.0004 C9.2595,15.0004 10.4885,14.8654 11.6715,14.6094 C13.1435,14.2914 14.2915,13.1434 14.6095,11.6714 C14.8655,10.4884 15.0005,9.2594 15.0005,8.0004 C15.0005,6.7404 14.8655,5.5114 14.6095,4.3284"/>
</svg>

<svg width="16" height="16" fill="none" xmlns="http://www.w3.org/2000/svg">
  <path fill-rule="evenodd" clip-rule="evenodd" d="M9 7V5a1 1 0 10-2 0v2H5a1 1 0 100 2h2v2a1 1 0 102 0V9h2a1 1 0 100-2H9zm3.654 4.249a1.835 1.835 0 01-1.405 1.405C10.189 12.884 9.096 13 8 13s-2.189-.116-3.25-.346a1.838 1.838 0 01-1.405-1.405 15.422 15.422 0 010-6.499A1.838 1.838 0 014.75 3.346 15.364 15.364 0 018 3c1.096 0 2.189.116 3.249.346a1.835 1.835 0 011.405 1.405C12.884 5.811 13 6.904 13 8s-.116 2.188-.346 3.249zm1.955-6.921a3.83 3.83 0 00-2.937-2.937A17.357 17.357 0 008 1c-1.26 0-2.488.135-3.672.391a3.828 3.828 0 00-2.937 2.937A17.357 17.357 0 001 8c0 1.26.135 2.488.391 3.672a3.83 3.83 0 002.937 2.937C5.512 14.865 6.74 15 8 15c1.26 0 2.488-.135 3.672-.391a3.83 3.83 0 002.937-2.937C14.865 10.488 15 9.26 15 8c0-1.26-.135-2.488-.391-3.672z" fill="#000"/>
</svg>
